X:3330
T:Connaught Heifers, The
R:reel
H:Also played with doubled parts.
D:Arty McGlynn: McGlynn's Fancy
D:Paddy Moloney & Sean Potts: Tin Whistles
Z:id:hn-reel-134
M:C|
K:D
~F3G A2BG|A2BG AGFD|~F3G AGGF|1 DG~G2 =cAAG:|2 DG~G2 =cAAg||
|:fdec d2cA|~A2BG ABde|1 fdec d2cA|BG~G2 AGFD:|2 ~f3g edcA|BG~G2 AGFD||


